svg/浏览器插件.svg

<svg width="24" height="24" viewBox="0 0 24 24" fill="none" xmlns="http://www.w3.org/2000/svg"><path d="M2 12V6H6.5V5C6.5 3.34315 7.84315 2 9.5 2C11.1568 2 12.5 3.34315 12.5 5V6H17V12H19C20.6568 12 22 13.3432 22 15C22 16.6568 20.6568 18 19 18H17V22H2V18H4C5.65685 18 7 16.6568 7 15C7 13.3432 5.65685 12 4 12H2Z" stroke="#737373" stroke-width="1.5" stroke-linejoin="round"/></svg>

<svg fill="none" viewBox="0 0 24 24"><path stroke="#737373" stroke-linejoin="round" stroke-width="1.5" d="M2 12V6h4.5V5a3 3 0 0 1 6 0v1H17v6h2a3 3 0 0 1 0 6h-2v4H2v-4h2a3 3 0 0 0 0-6z"/></svg>
